X:7833
T:Kom, skal vi klippe sauen
T:Shearing the sheep
C:anon.
O:Norway
R:Children's song, hambo
Z:Transcribed by Frank Nordberg - http://www.musicaviva.com
F:http://abc.musicaviva.com/tunes/norway/klippe-sauen/klippe-sauen-1.abc
%v = downstroke
M:3/4
L:1/8
K:G
vd2 (dB) (GB)|d2 (dB) G2|A2 (cA) (FA)|G2 (BG) D2|
vd2 (dB) (GB)|d2 (dB) G2|A2 (cA) (FA)|G2 G2 z2|
vD2 E2 F2|G2 A2 B2|c2 (cB) A2|B2 (BA) G2|
D2 E2 F2|G2 A2 B2|c2 (cA) (FA)|G2 G2 z2|]
W:
W:
W:  From Musica Viva - http://www.musicaviva.com
W:  the Internet center for free sheet music downloads.
